svgs/regular/chess-board.svg

<svg xmlns="http://www.w3.org/2000/svg" viewBox="0 0 448 512"><!--! Font Awesome Pro 6.4.0 by @fontawesome - https://fontawesome.com License - https://fontawesome.com/license (Commercial License) Copyright 2023 Fonticons, Inc. --><path d="M64 80c-8.8 0-16 7.2-16 16V416c0 8.8 7.2 16 16 16H384c8.8 0 16-7.2 16-16V96c0-8.8-7.2-16-16-16H64zM0 96C0 60.7 28.7 32 64 32H384c35.3 0 64 28.7 64 64V416c0 35.3-28.7 64-64 64H64c-35.3 0-64-28.7-64-64V96zm128 0v64h64V96h64v64h64V96h64v64H320v64h64v64H320v64h64v64H320V352H256v64H192V352H128v64H64V352h64V288H64V224h64V160H64V96h64zm64 128h64V160H192v64zm0 64V224H128v64h64zm64 0H192v64h64V288zm0 0h64V224H256v64z"/></svg>

<svg xmlns="http://www.w3.org/2000/svg" viewBox="0 0 448 512"><!--! Font Awesome Pro 6.6.0 by @fontawesome - https://fontawesome.com License - https://fontawesome.com/license (Commercial License) Copyright 2024 Fonticons, Inc. --><path d="M64 80c-8.8 0-16 7.2-16 16l0 320c0 8.8 7.2 16 16 16l320 0c8.8 0 16-7.2 16-16l0-320c0-8.8-7.2-16-16-16L64 80zM0 96C0 60.7 28.7 32 64 32l320 0c35.3 0 64 28.7 64 64l0 320c0 35.3-28.7 64-64 64L64 480c-35.3 0-64-28.7-64-64L0 96zm128 0l0 64 64 0 0-64 64 0 0 64 64 0 0-64 64 0 0 64-64 0 0 64 64 0 0 64-64 0 0 64 64 0 0 64-64 0 0-64-64 0 0 64-64 0 0-64-64 0 0 64-64 0 0-64 64 0 0-64-64 0 0-64 64 0 0-64-64 0 0-64 64 0zm64 128l64 0 0-64-64 0 0 64zm0 64l0-64-64 0 0 64 64 0zm64 0l-64 0 0 64 64 0 0-64zm0 0l64 0 0-64-64 0 0 64z"/></svg>
